images/50556298.svg

<?xml version="1.0" encoding="UTF-8"?>
<svg xmlns="http://www.w3.org/2000/svg" xmlns:xlink="http://www.w3.org/1999/xlink" width="300pt" height="300pt" viewBox="0 0 300 300" version="1.1">
<defs>
<g>
<symbol overflow="visible" id="glyph0-0">
<path style="stroke:none;" d="M 0.453125 1.59375 L 0.453125 -6.34375 L 4.953125 -6.34375 L 4.953125 1.59375 Z M 0.953125 1.09375 L 4.453125 1.09375 L 4.453125 -5.84375 L 0.953125 -5.84375 Z M 0.953125 1.09375 "/>
</symbol>
<symbol overflow="visible" id="glyph0-1">
<path style="stroke:none;" d="M 0.890625 -6.5625 L 4.65625 -6.5625 L 4.65625 -5.8125 L 1.765625 -5.8125 L 1.765625 -3.875 L 4.375 -3.875 L 4.375 -3.140625 L 1.765625 -3.140625 L 1.765625 0 L 0.890625 0 Z M 0.890625 -6.5625 "/>
</symbol>
<symbol overflow="visible" id="glyph0-2">
<path style="stroke:none;" d="M 0.890625 -6.5625 L 2.078125 -6.5625 L 4.984375 -1.078125 L 4.984375 -6.5625 L 5.84375 -6.5625 L 5.84375 0 L 4.65625 0 L 1.75 -5.484375 L 1.75 0 L 0.890625 0 Z M 0.890625 -6.5625 "/>
</symbol>
<symbol overflow="visible" id="glyph0-3">
<path style="stroke:none;" d="M 3.546875 -5.953125 C 2.898438 -5.953125 2.382812 -5.710938 2 -5.234375 C 1.625 -4.753906 1.4375 -4.101562 1.4375 -3.28125 C 1.4375 -2.445312 1.625 -1.789062 2 -1.3125 C 2.382812 -0.832031 2.898438 -0.59375 3.546875 -0.59375 C 4.191406 -0.59375 4.703125 -0.832031 5.078125 -1.3125 C 5.453125 -1.789062 5.640625 -2.445312 5.640625 -3.28125 C 5.640625 -4.101562 5.453125 -4.753906 5.078125 -5.234375 C 4.703125 -5.710938 4.191406 -5.953125 3.546875 -5.953125 Z M 3.546875 -6.6875 C 4.460938 -6.6875 5.195312 -6.375 5.75 -5.75 C 6.300781 -5.132812 6.578125 -4.3125 6.578125 -3.28125 C 6.578125 -2.238281 6.300781 -1.410156 5.75 -0.796875 C 5.195312 -0.179688 4.460938 0.125 3.546875 0.125 C 2.617188 0.125 1.878906 -0.179688 1.328125 -0.796875 C 0.773438 -1.410156 0.5 -2.238281 0.5 -3.28125 C 0.5 -4.3125 0.773438 -5.132812 1.328125 -5.75 C 1.878906 -6.375 2.617188 -6.6875 3.546875 -6.6875 Z M 3.546875 -6.6875 "/>
</symbol>
<symbol overflow="visible" id="glyph0-4">
<path style="stroke:none;" d="M 0.890625 -6.5625 L 1.765625 -6.5625 L 1.765625 -3.875 L 5 -3.875 L 5 -6.5625 L 5.890625 -6.5625 L 5.890625 0 L 5 0 L 5 -3.125 L 1.765625 -3.125 L 1.765625 0 L 0.890625 0 Z M 0.890625 -6.5625 "/>
</symbol>
</g>
</defs>
<g id="surface25469">
<rect x="0" y="0" width="300" height="300" style="fill:rgb(100%,100%,100%);fill-opacity:1;stroke:none;"/>
<path style="fill:none;stroke-width:1.2;stroke-linecap:butt;stroke-linejoin:miter;stroke:rgb(20%,80%,80%);stroke-opacity:1;stroke-miterlimit:10;" d="M 35.25 123.3125 L 41.675781 130.152344 "/>
<path style="fill:none;stroke-width:1.2;stroke-linecap:butt;stroke-linejoin:miter;stroke:rgb(0%,0%,0%);stroke-opacity:1;stroke-miterlimit:10;" d="M 41.675781 130.152344 L 48.097656 136.996094 "/>
<path style=" stroke:none;fill-rule:nonzero;fill:rgb(100%,100%,100%);fill-opacity:1;" d="M 29.25 117.8125 L 35.25 117.8125 L 35.25 128.8125 L 29.25 128.8125 Z M 29.25 117.8125 "/>
<g style="fill:rgb(20%,80%,80%);fill-opacity:1;">
  <use xlink:href="#glyph0-1" x="29.25" y="126.475586"/>
</g>
<path style="fill:none;stroke-width:1.2;stroke-linecap:butt;stroke-linejoin:miter;stroke:rgb(0%,0%,0%);stroke-opacity:1;stroke-miterlimit:10;" d="M 48.097656 136.996094 L 66.375 132.710938 "/>
<path style="fill:none;stroke-width:1.2;stroke-linecap:butt;stroke-linejoin:miter;stroke:rgb(0%,0%,0%);stroke-opacity:1;stroke-miterlimit:10;" d="M 50.933594 140.867188 L 65.554688 137.441406 "/>
<path style="fill:none;stroke-width:1.2;stroke-linecap:butt;stroke-linejoin:miter;stroke:rgb(0%,0%,0%);stroke-opacity:1;stroke-miterlimit:10;" d="M 42.671875 154.964844 L 48.097656 136.996094 "/>
<path style="fill:none;stroke-width:1.2;stroke-linecap:butt;stroke-linejoin:miter;stroke:rgb(0%,0%,0%);stroke-opacity:1;stroke-miterlimit:10;" d="M 66.375 132.710938 L 79.222656 146.394531 "/>
<path style="fill:none;stroke-width:1.2;stroke-linecap:butt;stroke-linejoin:miter;stroke:rgb(0%,0%,0%);stroke-opacity:1;stroke-miterlimit:10;" d="M 79.222656 146.394531 L 73.792969 164.363281 "/>
<path style="fill:none;stroke-width:1.2;stroke-linecap:butt;stroke-linejoin:miter;stroke:rgb(0%,0%,0%);stroke-opacity:1;stroke-miterlimit:10;" d="M 74.453125 146.914062 L 70.109375 161.292969 "/>
<path style="fill:none;stroke-width:1.2;stroke-linecap:butt;stroke-linejoin:miter;stroke:rgb(0%,0%,0%);stroke-opacity:1;stroke-miterlimit:10;" d="M 73.792969 164.363281 L 55.519531 168.648438 "/>
<path style="fill:none;stroke-width:1.2;stroke-linecap:butt;stroke-linejoin:miter;stroke:rgb(0%,0%,0%);stroke-opacity:1;stroke-miterlimit:10;" d="M 73.792969 164.363281 L 86.644531 178.050781 "/>
<path style="fill:none;stroke-width:1.2;stroke-linecap:butt;stroke-linejoin:miter;stroke:rgb(0%,0%,0%);stroke-opacity:1;stroke-miterlimit:10;" d="M 55.519531 168.648438 L 42.671875 154.964844 "/>
<path style="fill:none;stroke-width:1.2;stroke-linecap:butt;stroke-linejoin:miter;stroke:rgb(0%,0%,0%);stroke-opacity:1;stroke-miterlimit:10;" d="M 57.453125 164.257812 L 47.175781 153.308594 "/>
<path style="fill:none;stroke-width:1.2;stroke-linecap:butt;stroke-linejoin:miter;stroke:rgb(0%,0%,0%);stroke-opacity:1;stroke-miterlimit:10;" d="M 86.644531 178.050781 L 104.917969 173.765625 "/>
<path style="fill:none;stroke-width:1.2;stroke-linecap:butt;stroke-linejoin:miter;stroke:rgb(0%,0%,0%);stroke-opacity:1;stroke-miterlimit:10;" d="M 104.917969 173.765625 L 117.765625 187.449219 "/>
<path style="fill:none;stroke-width:1.2;stroke-linecap:butt;stroke-linejoin:miter;stroke:rgb(0%,0%,0%);stroke-opacity:1;stroke-miterlimit:10;" d="M 110.347656 155.796875 L 104.917969 173.765625 "/>
<path style="fill:none;stroke-width:1.2;stroke-linecap:butt;stroke-linejoin:miter;stroke:rgb(0%,0%,0%);stroke-opacity:1;stroke-miterlimit:10;" d="M 117.765625 187.449219 L 136.042969 183.164062 "/>
<path style="fill:none;stroke-width:1.2;stroke-linecap:butt;stroke-linejoin:miter;stroke:rgb(0%,0%,0%);stroke-opacity:1;stroke-miterlimit:10;" d="M 136.042969 183.164062 L 138.753906 174.179688 "/>
<path style="fill:none;stroke-width:1.2;stroke-linecap:butt;stroke-linejoin:miter;stroke:rgb(0%,0%,100%);stroke-opacity:1;stroke-miterlimit:10;" d="M 138.753906 174.179688 L 141.46875 165.195312 "/>
<path style="fill:none;stroke-width:1.2;stroke-linecap:butt;stroke-linejoin:miter;stroke:rgb(0%,0%,100%);stroke-opacity:1;stroke-miterlimit:10;" d="M 141.46875 165.195312 L 135.046875 158.355469 "/>
<path style="fill:none;stroke-width:1.2;stroke-linecap:butt;stroke-linejoin:miter;stroke:rgb(0%,0%,0%);stroke-opacity:1;stroke-miterlimit:10;" d="M 135.046875 158.355469 L 128.621094 151.511719 "/>
<path style="fill:none;stroke-width:1.2;stroke-linecap:butt;stroke-linejoin:miter;stroke:rgb(0%,0%,100%);stroke-opacity:1;stroke-miterlimit:10;" d="M 141.46875 165.195312 L 150.605469 163.054688 "/>
<path style="fill:none;stroke-width:1.2;stroke-linecap:butt;stroke-linejoin:miter;stroke:rgb(0%,0%,0%);stroke-opacity:1;stroke-miterlimit:10;" d="M 150.605469 163.054688 L 159.746094 160.914062 "/>
<path style=" stroke:none;fill-rule:nonzero;fill:rgb(100%,100%,100%);fill-opacity:1;" d="M 138.46875 159.695312 L 145.46875 159.695312 L 145.46875 170.695312 L 138.46875 170.695312 Z M 138.46875 159.695312 "/>
<g style="fill:rgb(0%,0%,100%);fill-opacity:1;">
  <use xlink:href="#glyph0-2" x="138.46875" y="168.358398"/>
</g>
<path style="fill:none;stroke-width:1.2;stroke-linecap:butt;stroke-linejoin:miter;stroke:rgb(0%,0%,0%);stroke-opacity:1;stroke-miterlimit:10;" d="M 128.621094 151.511719 L 110.347656 155.796875 "/>
<path style="fill:none;stroke-width:1.2;stroke-linecap:butt;stroke-linejoin:miter;stroke:rgb(0%,0%,0%);stroke-opacity:1;stroke-miterlimit:10;" d="M 158.136719 162.421875 L 164.558594 169.265625 "/>
<path style="fill:none;stroke-width:1.2;stroke-linecap:butt;stroke-linejoin:miter;stroke:rgb(100%,0%,0%);stroke-opacity:1;stroke-miterlimit:10;" d="M 164.558594 169.265625 L 170.984375 176.109375 "/>
<path style="fill:none;stroke-width:1.2;stroke-linecap:butt;stroke-linejoin:miter;stroke:rgb(0%,0%,0%);stroke-opacity:1;stroke-miterlimit:10;" d="M 161.355469 159.402344 L 167.777344 166.242188 "/>
<path style="fill:none;stroke-width:1.2;stroke-linecap:butt;stroke-linejoin:miter;stroke:rgb(100%,0%,0%);stroke-opacity:1;stroke-miterlimit:10;" d="M 167.777344 166.242188 L 174.203125 173.085938 "/>
<path style="fill:none;stroke-width:1.2;stroke-linecap:butt;stroke-linejoin:miter;stroke:rgb(0%,0%,0%);stroke-opacity:1;stroke-miterlimit:10;" d="M 159.746094 160.914062 L 165.171875 142.941406 "/>
<path style=" stroke:none;fill-rule:nonzero;fill:rgb(100%,100%,100%);fill-opacity:1;" d="M 168.59375 169.097656 L 176.59375 169.097656 L 176.59375 180.097656 L 168.59375 180.097656 Z M 168.59375 169.097656 "/>
<g style="fill:rgb(100%,0%,0%);fill-opacity:1;">
  <use xlink:href="#glyph0-3" x="168.59375" y="177.760742"/>
</g>
<path style="fill:none;stroke-width:1.2;stroke-linecap:butt;stroke-linejoin:miter;stroke:rgb(0%,0%,0%);stroke-opacity:1;stroke-miterlimit:10;" d="M 165.171875 142.941406 L 182.898438 136.773438 "/>
<path style="fill:none;stroke-width:1.2;stroke-linecap:butt;stroke-linejoin:miter;stroke:rgb(0%,0%,0%);stroke-opacity:1;stroke-miterlimit:10;" d="M 153.824219 127.988281 L 165.171875 142.941406 "/>
<path style="fill:none;stroke-width:1.2;stroke-linecap:butt;stroke-linejoin:miter;stroke:rgb(0%,0%,0%);stroke-opacity:1;stroke-miterlimit:10;" d="M 158.476562 126.816406 L 167.554688 138.777344 "/>
<path style="fill:none;stroke-width:1.2;stroke-linecap:butt;stroke-linejoin:miter;stroke:rgb(0%,0%,0%);stroke-opacity:1;stroke-miterlimit:10;" d="M 182.898438 136.773438 L 199.347656 145.816406 "/>
<path style="fill:none;stroke-width:1.2;stroke-linecap:butt;stroke-linejoin:miter;stroke:rgb(0%,0%,0%);stroke-opacity:1;stroke-miterlimit:10;" d="M 186.671875 133.804688 L 199.832031 141.042969 "/>
<path style="fill:none;stroke-width:1.2;stroke-linecap:butt;stroke-linejoin:miter;stroke:rgb(0%,0%,0%);stroke-opacity:1;stroke-miterlimit:10;" d="M 182.507812 118.003906 L 182.898438 136.773438 "/>
<path style="fill:none;stroke-width:1.2;stroke-linecap:butt;stroke-linejoin:miter;stroke:rgb(0%,0%,0%);stroke-opacity:1;stroke-miterlimit:10;" d="M 199.347656 145.816406 L 215.40625 136.09375 "/>
<path style="fill:none;stroke-width:1.2;stroke-linecap:butt;stroke-linejoin:miter;stroke:rgb(0%,0%,0%);stroke-opacity:1;stroke-miterlimit:10;" d="M 215.40625 136.09375 L 215.015625 117.328125 "/>
<path style="fill:none;stroke-width:1.2;stroke-linecap:butt;stroke-linejoin:miter;stroke:rgb(0%,0%,0%);stroke-opacity:1;stroke-miterlimit:10;" d="M 210.949219 134.308594 L 210.636719 119.296875 "/>
<path style="fill:none;stroke-width:1.2;stroke-linecap:butt;stroke-linejoin:miter;stroke:rgb(0%,0%,0%);stroke-opacity:1;stroke-miterlimit:10;" d="M 215.40625 136.09375 L 231.855469 145.140625 "/>
<path style="fill:none;stroke-width:1.2;stroke-linecap:butt;stroke-linejoin:miter;stroke:rgb(0%,0%,0%);stroke-opacity:1;stroke-miterlimit:10;" d="M 215.015625 117.328125 L 198.566406 108.28125 "/>
<path style="fill:none;stroke-width:1.2;stroke-linecap:butt;stroke-linejoin:miter;stroke:rgb(0%,0%,0%);stroke-opacity:1;stroke-miterlimit:10;" d="M 198.566406 108.28125 L 182.507812 118.003906 "/>
<path style="fill:none;stroke-width:1.2;stroke-linecap:butt;stroke-linejoin:miter;stroke:rgb(0%,0%,0%);stroke-opacity:1;stroke-miterlimit:10;" d="M 199.246094 113.03125 L 186.402344 120.8125 "/>
<path style="fill:none;stroke-width:1.2;stroke-linecap:butt;stroke-linejoin:miter;stroke:rgb(0%,0%,0%);stroke-opacity:1;stroke-miterlimit:10;" d="M 182.507812 118.003906 L 173.523438 115.289062 "/>
<path style="fill:none;stroke-width:1.2;stroke-linecap:butt;stroke-linejoin:miter;stroke:rgb(0%,0%,100%);stroke-opacity:1;stroke-miterlimit:10;" d="M 173.523438 115.289062 L 164.539062 112.578125 "/>
<path style="fill:none;stroke-width:1.2;stroke-linecap:butt;stroke-linejoin:miter;stroke:rgb(0%,0%,100%);stroke-opacity:1;stroke-miterlimit:10;" d="M 164.539062 112.578125 L 159.183594 120.285156 "/>
<path style="fill:none;stroke-width:1.2;stroke-linecap:butt;stroke-linejoin:miter;stroke:rgb(0%,0%,0%);stroke-opacity:1;stroke-miterlimit:10;" d="M 159.183594 120.285156 L 153.824219 127.988281 "/>
<path style=" stroke:none;fill-rule:nonzero;fill:rgb(100%,100%,100%);fill-opacity:1;" d="M 157.539062 107.078125 L 171.539062 107.078125 L 171.539062 118.078125 L 157.539062 118.078125 Z M 157.539062 107.078125 "/>
<g style="fill:rgb(0%,0%,100%);fill-opacity:1;">
  <use xlink:href="#glyph0-2" x="157.539062" y="115.741211"/>
  <use xlink:href="#glyph0-4" x="164.516602" y="115.741211"/>
</g>
<path style="fill:none;stroke-width:1.2;stroke-linecap:butt;stroke-linejoin:miter;stroke:rgb(0%,0%,0%);stroke-opacity:1;stroke-miterlimit:10;" d="M 153.824219 127.988281 L 135.058594 128.382812 "/>
<path style="fill:none;stroke-width:1.2;stroke-linecap:butt;stroke-linejoin:miter;stroke:rgb(0%,0%,0%);stroke-opacity:1;stroke-miterlimit:10;" d="M 232.996094 147.027344 L 241.027344 142.167969 "/>
<path style="fill:none;stroke-width:1.2;stroke-linecap:butt;stroke-linejoin:miter;stroke:rgb(100%,0%,0%);stroke-opacity:1;stroke-miterlimit:10;" d="M 241.027344 142.167969 L 249.054688 137.304688 "/>
<path style="fill:none;stroke-width:1.2;stroke-linecap:butt;stroke-linejoin:miter;stroke:rgb(0%,0%,0%);stroke-opacity:1;stroke-miterlimit:10;" d="M 230.710938 143.25 L 238.738281 138.390625 "/>
<path style="fill:none;stroke-width:1.2;stroke-linecap:butt;stroke-linejoin:miter;stroke:rgb(100%,0%,0%);stroke-opacity:1;stroke-miterlimit:10;" d="M 238.738281 138.390625 L 246.765625 133.527344 "/>
<path style="fill:none;stroke-width:1.2;stroke-linecap:butt;stroke-linejoin:miter;stroke:rgb(0%,0%,0%);stroke-opacity:1;stroke-miterlimit:10;" d="M 231.855469 145.140625 L 232.246094 163.90625 "/>
<path style=" stroke:none;fill-rule:nonzero;fill:rgb(100%,100%,100%);fill-opacity:1;" d="M 243.910156 129.917969 L 251.910156 129.917969 L 251.910156 140.917969 L 243.910156 140.917969 Z M 243.910156 129.917969 "/>
<g style="fill:rgb(100%,0%,0%);fill-opacity:1;">
  <use xlink:href="#glyph0-3" x="243.910156" y="138.581055"/>
</g>
<path style="fill:none;stroke-width:1.2;stroke-linecap:butt;stroke-linejoin:miter;stroke:rgb(0%,0%,0%);stroke-opacity:1;stroke-miterlimit:10;" d="M 231.101562 162.015625 L 223.074219 166.878906 "/>
<path style="fill:none;stroke-width:1.2;stroke-linecap:butt;stroke-linejoin:miter;stroke:rgb(100%,0%,0%);stroke-opacity:1;stroke-miterlimit:10;" d="M 223.074219 166.878906 L 215.042969 171.738281 "/>
<path style="fill:none;stroke-width:1.2;stroke-linecap:butt;stroke-linejoin:miter;stroke:rgb(0%,0%,0%);stroke-opacity:1;stroke-miterlimit:10;" d="M 233.386719 165.796875 L 225.359375 170.65625 "/>
<path style="fill:none;stroke-width:1.2;stroke-linecap:butt;stroke-linejoin:miter;stroke:rgb(100%,0%,0%);stroke-opacity:1;stroke-miterlimit:10;" d="M 225.359375 170.65625 L 217.332031 175.515625 "/>
<path style="fill:none;stroke-width:1.2;stroke-linecap:butt;stroke-linejoin:miter;stroke:rgb(0%,0%,0%);stroke-opacity:1;stroke-miterlimit:10;" d="M 232.246094 163.90625 L 240.46875 168.429688 "/>
<path style="fill:none;stroke-width:1.2;stroke-linecap:butt;stroke-linejoin:miter;stroke:rgb(0%,0%,100%);stroke-opacity:1;stroke-miterlimit:10;" d="M 240.46875 168.429688 L 248.691406 172.949219 "/>
<path style=" stroke:none;fill-rule:nonzero;fill:rgb(100%,100%,100%);fill-opacity:1;" d="M 208.1875 168.128906 L 216.1875 168.128906 L 216.1875 179.128906 L 208.1875 179.128906 Z M 208.1875 168.128906 "/>
<g style="fill:rgb(100%,0%,0%);fill-opacity:1;">
  <use xlink:href="#glyph0-3" x="208.1875" y="176.791992"/>
</g>
<path style="fill:none;stroke-width:1.2;stroke-linecap:butt;stroke-linejoin:miter;stroke:rgb(0%,0%,100%);stroke-opacity:1;stroke-miterlimit:10;" d="M 248.691406 172.949219 L 248.886719 182.335938 "/>
<path style="fill:none;stroke-width:1.2;stroke-linecap:butt;stroke-linejoin:miter;stroke:rgb(0%,0%,0%);stroke-opacity:1;stroke-miterlimit:10;" d="M 248.886719 182.335938 L 249.085938 191.71875 "/>
<path style="fill:none;stroke-width:1.2;stroke-linecap:butt;stroke-linejoin:miter;stroke:rgb(0%,0%,100%);stroke-opacity:1;stroke-miterlimit:10;" d="M 248.691406 172.949219 L 256.722656 168.089844 "/>
<path style="fill:none;stroke-width:1.2;stroke-linecap:butt;stroke-linejoin:miter;stroke:rgb(0%,0%,0%);stroke-opacity:1;stroke-miterlimit:10;" d="M 256.722656 168.089844 L 264.75 163.226562 "/>
<path style=" stroke:none;fill-rule:nonzero;fill:rgb(100%,100%,100%);fill-opacity:1;" d="M 245.691406 167.449219 L 252.691406 167.449219 L 252.691406 178.449219 L 245.691406 178.449219 Z M 245.691406 167.449219 "/>
<g style="fill:rgb(0%,0%,100%);fill-opacity:1;">
  <use xlink:href="#glyph0-2" x="245.691406" y="176.112305"/>
</g>
</g>
</svg>

<svg xmlns="http://www.w3.org/2000/svg" xmlns:xlink="http://www.w3.org/1999/xlink" width="300pt" height="300pt" viewBox="0 0 300 300"><defs><symbol overflow="visible"><path d="M.453 1.594v-7.938h4.5v7.938zm.5-.5h3.5v-6.938h-3.5zm0 0"/></symbol><symbol overflow="visible" id="a"><path d="M.89-6.563h3.766v.75h-2.89v1.938h2.61v.734h-2.61V0H.89zm0 0"/></symbol><symbol overflow="visible" id="b"><path d="M.89-6.563H2.08l2.906 5.485v-5.484h.86V0H4.656L1.75-5.484V0H.89zm0 0"/></symbol><symbol overflow="visible" id="c"><path d="M3.547-5.953c-.65 0-1.164.242-1.547.72-.375.48-.563 1.13-.563 1.952 0 .835.188 1.49.563 1.967.383.48.898.72 1.547.72.644 0 1.156-.24 1.53-.72.376-.476.564-1.132.564-1.968 0-.822-.187-1.474-.562-1.954-.375-.477-.887-.72-1.53-.72zm0-.734c.914 0 1.648.312 2.203.937.55.617.828 1.438.828 2.47 0 1.042-.277 1.87-.828 2.483-.555.617-1.29.922-2.203.922-.93 0-1.668-.305-2.22-.922C.774-1.41.5-2.237.5-3.28c0-1.033.273-1.853.828-2.47.55-.625 1.29-.938 2.22-.938zm0 0"/></symbol><symbol overflow="visible" id="d"><path d="M.89-6.563h.876v2.688H5v-2.688h.89V0H5v-3.125H1.766V0H.89zm0 0"/></symbol></defs><g><path fill="#fff" d="M0 0h300v300H0z"/><path d="M35.25 123.313l6.426 6.84" stroke-width="1.2" stroke="#3cc" stroke-miterlimit="10" fill="none"/><path d="M41.676 130.152l6.422 6.844" stroke-width="1.2" stroke="#000" stroke-miterlimit="10" fill="none"/><path d="M29.25 117.813h6v11h-6zm0 0" fill="#fff"/><use xlink:href="#a" x="29.25" y="126.476" fill="#3cc"/><path d="M48.098 136.996l18.277-4.285M50.934 140.867l14.62-3.426M42.672 154.965l5.426-17.97M66.375 132.71l12.848 13.685M79.223 146.395l-5.43 17.968M74.453 146.914l-4.344 14.38M73.793 164.363l-18.273 4.285M73.793 164.363l12.852 13.688M55.52 168.648l-12.848-13.683M57.453 164.258l-10.277-10.95M86.645 178.05l18.273-4.284M104.918 173.766l12.848 13.683M110.348 155.797l-5.43 17.97M117.766 187.45l18.277-4.286M136.043 183.164l2.71-8.984" stroke-width="1.2" stroke="#000" stroke-miterlimit="10" fill="none"/><path d="M138.754 174.18l2.715-8.985M141.47 165.195l-6.423-6.84" stroke-width="1.2" stroke="#00f" stroke-miterlimit="10" fill="none"/><path d="M135.047 158.355l-6.426-6.843" stroke-width="1.2" stroke="#000" stroke-miterlimit="10" fill="none"/><path d="M141.47 165.195l9.135-2.14" stroke-width="1.2" stroke="#00f" stroke-miterlimit="10" fill="none"/><path d="M150.605 163.055l9.14-2.14" stroke-width="1.2" stroke="#000" stroke-miterlimit="10" fill="none"/><path d="M138.47 159.695h7v11h-7zm0 0" fill="#fff"/><use xlink:href="#b" x="138.469" y="168.358" fill="#00f"/><path d="M128.62 151.512l-18.272 4.285M158.137 162.422l6.422 6.844" stroke-width="1.2" stroke="#000" stroke-miterlimit="10" fill="none"/><path d="M164.56 169.266l6.424 6.843" stroke-width="1.2" stroke="#f00" stroke-miterlimit="10" fill="none"/><path d="M161.355 159.402l6.422 6.84" stroke-width="1.2" stroke="#000" stroke-miterlimit="10" fill="none"/><path d="M167.777 166.242l6.426 6.844" stroke-width="1.2" stroke="#f00" stroke-miterlimit="10" fill="none"/><path d="M159.746 160.914l5.426-17.973" stroke-width="1.2" stroke="#000" stroke-miterlimit="10" fill="none"/><path d="M168.594 169.098h8v11h-8zm0 0" fill="#fff"/><use xlink:href="#c" x="168.594" y="177.761" fill="#f00"/><path d="M165.172 142.94l17.726-6.167M153.824 127.988l11.348 14.953M158.477 126.816l9.078 11.96M182.898 136.773l16.45 9.043M186.672 133.805l13.16 7.238M182.508 118.004l.39 18.77M199.348 145.816l16.058-9.722M215.406 136.094l-.39-18.766M210.95 134.31l-.313-15.013M215.406 136.094l16.45 9.047M215.016 117.328l-16.45-9.047M198.566 108.28l-16.058 9.724M199.246 113.03l-12.844 7.782M182.508 118.004l-8.985-2.715" stroke-width="1.2" stroke="#000" stroke-miterlimit="10" fill="none"/><path d="M173.523 115.29l-8.984-2.712M164.54 112.578l-5.356 7.707" stroke-width="1.2" stroke="#00f" stroke-miterlimit="10" fill="none"/><path d="M159.184 120.285l-5.36 7.703" stroke-width="1.2" stroke="#000" stroke-miterlimit="10" fill="none"/><path d="M157.54 107.078h14v11h-14zm0 0" fill="#fff"/><g fill="#00f"><use xlink:href="#b" x="157.539" y="115.741"/><use xlink:href="#d" x="164.517" y="115.741"/></g><path d="M153.824 127.988l-18.765.395M232.996 147.027l8.03-4.86" stroke-width="1.2" stroke="#000" stroke-miterlimit="10" fill="none"/><path d="M241.027 142.168l8.028-4.863" stroke-width="1.2" stroke="#f00" stroke-miterlimit="10" fill="none"/><path d="M230.71 143.25l8.028-4.86" stroke-width="1.2" stroke="#000" stroke-miterlimit="10" fill="none"/><path d="M238.738 138.39l8.028-4.863" stroke-width="1.2" stroke="#f00" stroke-miterlimit="10" fill="none"/><path d="M231.855 145.14l.39 18.766" stroke-width="1.2" stroke="#000" stroke-miterlimit="10" fill="none"/><path d="M243.91 129.918h8v11h-8zm0 0" fill="#fff"/><use xlink:href="#c" x="243.91" y="138.581" fill="#f00"/><path d="M231.102 162.016l-8.028 4.863" stroke-width="1.2" stroke="#000" stroke-miterlimit="10" fill="none"/><path d="M223.074 166.88l-8.03 4.858" stroke-width="1.2" stroke="#f00" stroke-miterlimit="10" fill="none"/><path d="M233.387 165.797l-8.028 4.86" stroke-width="1.2" stroke="#000" stroke-miterlimit="10" fill="none"/><path d="M225.36 170.656l-8.028 4.86" stroke-width="1.2" stroke="#f00" stroke-miterlimit="10" fill="none"/><path d="M232.246 163.906l8.223 4.524" stroke-width="1.2" stroke="#000" stroke-miterlimit="10" fill="none"/><path d="M240.47 168.43l8.22 4.52" stroke-width="1.2" stroke="#00f" stroke-miterlimit="10" fill="none"/><path d="M208.188 168.13h8v11h-8zm0 0" fill="#fff"/><use xlink:href="#c" x="208.188" y="176.792" fill="#f00"/><path d="M248.69 172.95l.197 9.386" stroke-width="1.2" stroke="#00f" stroke-miterlimit="10" fill="none"/><path d="M248.887 182.336l.2 9.383" stroke-width="1.2" stroke="#000" stroke-miterlimit="10" fill="none"/><path d="M248.69 172.95l8.033-4.86" stroke-width="1.2" stroke="#00f" stroke-miterlimit="10" fill="none"/><path d="M256.723 168.09l8.027-4.863" stroke-width="1.2" stroke="#000" stroke-miterlimit="10" fill="none"/><path d="M245.69 167.45h7v11h-7zm0 0" fill="#fff"/><use xlink:href="#b" x="245.691" y="176.112" fill="#00f"/></g></svg>
